source/svgs/bowtie/uE9CF-view-full-screen-exit.svg

<svg xmlns="http://www.w3.org/2000/svg" viewBox="0 0 448 448"><path d="M128 448h-32v-96h-96v-32h128v128zm224-96h96v-32h-128v128h32v-96zm-224-352h-32v96h-96v32h128v-128zm320 96h-96v-96h-32v128h128v-32z"/></svg>

<svg xmlns="http://www.w3.org/2000/svg" viewBox="0 0 448 448"><path d="M128 448H96v-96H0v-32h128v128zm224-96h96v-32H320v128h32v-96zM128 0H96v96H0v32h128V0zm320 96h-96V0h-32v128h128V96z"/></svg>
